SVG_Azure_All/Azure NetApp Files.svg

<?xml version="1.0" encoding="UTF-8" standalone="no"?>
<!-- Generated by Microsoft Visio, SVG Export Azure NetApp Files.svg Page-1 -->

<svg
   xmlns:dc="http://purl.org/dc/elements/1.1/"
   xmlns:cc="http://creativecommons.org/ns#"
   xmlns:rdf="http://www.w3.org/1999/02/22-rdf-syntax-ns#"
   xmlns:svg="http://www.w3.org/2000/svg"
   xmlns="http://www.w3.org/2000/svg"
   xmlns:sodipodi="http://sodipodi.sourceforge.net/DTD/sodipodi-0.dtd"
   xmlns:inkscape="http://www.inkscape.org/namespaces/inkscape"
   width="0.78735936in"
   height="0.62991387in"
   viewBox="0 0 56.689782 45.353896"
   xml:space="preserve"
   class="st6"
   version="1.1"
   id="svg49"
   sodipodi:docname="Azure NetApp Files.svg"
   style="font-size:12px;overflow:visible;color-interpolation-filters:sRGB;fill:none;fill-rule:evenodd;stroke-linecap:square;stroke-miterlimit:3"
   inkscape:version="0.92.5 (2060ec1f9f, 2020-04-08)"><metadata
   id="metadata53"><rdf:RDF><cc:Work
       rdf:about=""><dc:format>image/svg+xml</dc:format><dc:type
         rdf:resource="http://purl.org/dc/dcmitype/StillImage" /></cc:Work></rdf:RDF></metadata><sodipodi:namedview
   pagecolor="#ffffff"
   bordercolor="#666666"
   borderopacity="1"
   objecttolerance="10"
   gridtolerance="10"
   guidetolerance="10"
   inkscape:pageopacity="0"
   inkscape:pageshadow="2"
   inkscape:window-width="640"
   inkscape:window-height="480"
   id="namedview51"
   showgrid="false"
   inkscape:zoom="1.5612629"
   inkscape:cx="37.795252"
   inkscape:cy="30.225663"
   inkscape:window-x="0"
   inkscape:window-y="0"
   inkscape:window-maximized="0"
   inkscape:current-layer="svg49" />
	<style
   type="text/css"
   id="style2">
	<![CDATA[
		.st1 {fill:url(#grad0-6);stroke:none;stroke-linecap:butt;stroke-width:34}
		.st2 {fill:#198ab3;stroke:none;stroke-linecap:butt;stroke-width:34}
		.st3 {fill:#ffffff;stroke:none;stroke-linecap:butt;stroke-width:34}
		.st4 {fill:#9cebff;stroke:none;stroke-linecap:butt;stroke-width:34}
		.st5 {fill:#0078d4;stroke:none;stroke-linecap:butt;stroke-width:34}
		.st6 {fill:none;fill-rule:evenodd;font-size:12px;overflow:visible;stroke-linecap:square;stroke-miterlimit:3}
	]]>
	</style>

	<defs
   id="Patterns_And_Gradients">
		<linearGradient
   id="grad0-6"
   x1="0"
   y1="104.3574"
   x2="43.474643"
   y2="104.3574"
   gradientTransform="scale(1.3039785,0.76688381)"
   gradientUnits="userSpaceOnUse">
			<stop
   offset="0"
   stop-color="#32bedd"
   stop-opacity="1"
   id="stop4" />
			<stop
   offset="0.18"
   stop-color="#32caea"
   stop-opacity="1"
   id="stop6" />
			<stop
   offset="0.41"
   stop-color="#32d2f2"
   stop-opacity="1"
   id="stop8" />
			<stop
   offset="0.78"
   stop-color="#32d4f5"
   stop-opacity="1"
   id="stop10" />
		</linearGradient>
	</defs>
	<g
   id="g47"
   transform="translate(-34.000237,-34.0004)">
		<title
   id="title14">Page-1</title>
		<g
   id="group7704-1"
   transform="translate(34,-34.0157)">
			<title
   id="title16">Azure NetApp Files</title>
			<g
   id="group7705-2">
				<title
   id="title18">Sheet.7705</title>
				<g
   id="shape7706-3">
					<title
   id="title20">Sheet.7706</title>
					<path
   d="m 0,80.03 h 56.69 v 31.45 a 1.90088,1.89115 0 0 1 -1.9,1.89 H 1.9 A 1.90088,1.89115 0 0 1 0,111.48 Z"
   class="st1"
   id="path22"
   inkscape:connector-curvature="0"
   style="fill:url(#grad0-6);stroke:none;stroke-width:34;stroke-linecap:butt" />
				</g>
				<g
   id="shape7707-7"
   transform="translate(0,-33.3439)">
					<title
   id="title25">Sheet.7707</title>
					<path
   d="m 1.9,101.36 h 52.89 a 1.90088,1.89115 0 0 1 1.9,1.89 v 10.12 H 0 v -10.15 a 1.90088,1.89115 0 0 1 1.9,-1.86 z"
   class="st2"
   id="path27"
   inkscape:connector-curvature="0"
   style="fill:#198ab3;stroke:none;stroke-width:34;stroke-linecap:butt" />
				</g>
				<g
   id="shape7708-9"
   transform="translate(6.8365,-23.2578)">
					<title
   id="title30">Sheet.7708</title>
					<path
   d="m 0.87,106.93 h 41.22 a 0.900417,0.895806 0 0 1 0.900417,0.89581 L 42.99,112.47 a 0.900417,0.895806 0 0 1 -0.900417,0.89581 L 0.87,113.37 A 0.900417,0.895806 0 0 1 0.002932,112.47419 L 0,107.83 a 0.900417,0.895806 0 0 1 0.867068,-0.89581 z"
   class="st3"
   id="path32"
   inkscape:connector-curvature="0"
   style="fill:#ffffff;stroke:none;stroke-width:34;stroke-linecap:butt" />
				</g>
				<g
   id="shape7709-11"
   transform="translate(6.86985,-4.61174)">
					<title
   id="title35">Sheet.7709</title>
					<path
   d="m 0.87,97.54 h 41.22 a 0.900417,0.895806 0 0 1 0.900417,0.895806 L 42.99,103.12 a 0.900417,0.895806 0 0 1 -0.900417,0.89581 L 0.87,104.01 A 0.867068,0.862628 0 0 1 0.002932,103.11419 L 0,98.61 a 0.867068,0.862628 0 0 1 0.867068,-1.0617 z m 0,9.36 h 41.22 a 0.900417,0.895806 0 0 1 0.900417,0.89581 L 42.99,112.47 a 0.900417,0.895806 0 0 1 -0.900417,0.89581 L 0.87,113.37 A 0.867068,0.862628 0 0 1 0.002932,112.47419 L 0,107.8 a 0.867068,0.862628 0 0 1 0.867068,-0.89581 z"
   class="st4"
   id="path37"
   inkscape:connector-curvature="0"
   style="fill:#9cebff;stroke:none;stroke-width:34;stroke-linecap:butt" />
				</g>
				<g
   id="shape7710-13"
   transform="translate(15.3738,-7.00056)">
					<title
   id="title40">Sheet.7710</title>
					<path
   d="m 0,93.89 v 18.55 a 0.933766,0.928984 -180 0 0 0.933766,0.92898 L 8.77,113.37 a 0.933766,0.928984 -180 0 0 0.867068,-0.92898 L 9.64,101.43 a 0.900417,0.895806 0 0 1 0.933766,-0.92898 L 15.27,100.5 a 0.900417,0.895806 0 0 1 0.933766,0.92898 L 16.21,112.44 a 0.933766,0.928984 -180 0 0 0.967114,0.92898 L 25.01,113.37 a 0.933766,0.928984 -180 0 0 0.933766,-0.92898 L 25.95,93.89 A 0.933766,0.928984 -180 0 0 25.016234,92.961016 L 0.93,92.97 a 0.933766,0.928984 -180 0 0 -0.933766,0.928984 z"
   class="st5"
   id="path42"
   inkscape:connector-curvature="0"
   style="fill:#0078d4;stroke:none;stroke-width:34;stroke-linecap:butt" />
				</g>
			</g>
		</g>
	</g>
</svg>

<?xml version="1.0" encoding="UTF-8" standalone="no"?>
<!DOCTYPE svg PUBLIC "-//W3C//DTD SVG 1.1//EN" "http://www.w3.org/Graphics/SVG/1.1/DTD/svg11.dtd">
<!-- Generated by Microsoft Visio, SVG Export Azure NetApp Files.svg Page-1 -->
<svg xmlns="http://www.w3.org/2000/svg" xmlns:xlink="http://www.w3.org/1999/xlink" xmlns:ev="http://www.w3.org/2001/xml-events"
		width="1.73185in" height="1.57458in" viewBox="0 0 124.693 113.37" xml:space="preserve" color-interpolation-filters="sRGB"
		class="st6">
	<style type="text/css">
	<![CDATA[
		.st1 {fill:url(#grad0-6);stroke:none;stroke-linecap:butt;stroke-width:34}
		.st2 {fill:#198ab3;stroke:none;stroke-linecap:butt;stroke-width:34}
		.st3 {fill:#ffffff;stroke:none;stroke-linecap:butt;stroke-width:34}
		.st4 {fill:#9cebff;stroke:none;stroke-linecap:butt;stroke-width:34}
		.st5 {fill:#0078d4;stroke:none;stroke-linecap:butt;stroke-width:34}
		.st6 {fill:none;fill-rule:evenodd;font-size:12px;overflow:visible;stroke-linecap:square;stroke-miterlimit:3}
	]]>
	</style>

	<defs id="Patterns_And_Gradients">
		<linearGradient id="grad0-6" x1="0" y1="0" x2="1" y2="0" gradientTransform="rotate(-90 0.5 0.5)">
			<stop offset="0" stop-color="#32bedd" stop-opacity="1"/>
			<stop offset="0.18" stop-color="#32caea" stop-opacity="1"/>
			<stop offset="0.41" stop-color="#32d2f2" stop-opacity="1"/>
			<stop offset="0.78" stop-color="#32d4f5" stop-opacity="1"/>
		</linearGradient>
	</defs>
	<g>
		<title>Page-1</title>
		<g id="group7520-1" transform="translate(34,-34.0157)">
			<title>Azure NetApp Files</title>
			<g id="group7521-2">
				<title>Sheet.7521</title>
				<g id="shape7522-3">
					<title>Sheet.7522</title>
					<path d="M0 80.03 L56.69 80.03 L56.69 111.48 A1.90088 1.89115 0 0 1 54.79 113.37 L1.9 113.37 A1.90088 1.89115
								 0 0 1 0 111.48 L0 80.03 Z" class="st1"/>
				</g>
				<g id="shape7523-7" transform="translate(0,-33.3439)">
					<title>Sheet.7523</title>
					<path d="M1.9 101.36 L54.79 101.36 A1.90088 1.89115 0 0 1 56.69 103.25 L56.69 113.37 L0 113.37 L0 103.22 A1.90088
								 1.89115 0 0 1 1.9 101.36 Z" class="st2"/>
				</g>
				<g id="shape7524-9" transform="translate(6.8365,-23.2578)">
					<title>Sheet.7524</title>
					<path d="M0.87 106.93 L42.09 106.93 a0.900417 0.895806 0 0 1 0.900417 0.895806 L42.99 112.47 a0.900417 0.895806
								 0 0 1 -0.900417 0.895806 L0.87 113.37 a0.900417 0.895806 0 0 1 -0.867068 -0.895806 L0 107.83 a0.900417
								 0.895806 0 0 1 0.867068 -0.895806 Z" class="st3"/>
				</g>
				<g id="shape7525-11" transform="translate(6.86985,-4.61174)">
					<title>Sheet.7525</title>
					<path d="M0.87 97.54 L42.09 97.54 a0.900417 0.895806 0 0 1 0.900417 0.895806 L42.99 103.12 a0.900417 0.895806
								 0 0 1 -0.900417 0.895806 L0.87 104.01 a0.867068 0.862628 0 0 1 -0.867068 -0.895806 L0 98.61 a0.867068
								 0.862628 0 0 1 0.867068 -1.0617 ZM0.87 106.9 L42.09 106.9 a0.900417 0.895806 0 0 1 0.900417 0.895806
								 L42.99 112.47 a0.900417 0.895806 0 0 1 -0.900417 0.895806 L0.87 113.37 a0.867068 0.862628 0 0 1
								 -0.867068 -0.895806 L0 107.8 a0.867068 0.862628 0 0 1 0.867068 -0.895806 Z" class="st4"/>
				</g>
				<g id="shape7526-13" transform="translate(15.3738,-7.00056)">
					<title>Sheet.7526</title>
					<path d="M0 93.89 L0 112.44 a0.933766 0.928984 -180 0 0 0.933766 0.928984 L8.77 113.37 a0.933766 0.928984 -180
								 0 0 0.867068 -0.928984 L9.64 101.43 a0.900417 0.895806 0 0 1 0.933766 -0.928984 L15.27 100.5 a0.900417
								 0.895806 0 0 1 0.933766 0.928984 L16.21 112.44 a0.933766 0.928984 -180 0 0 0.967114 0.928984 L25.01
								 113.37 a0.933766 0.928984 -180 0 0 0.933766 -0.928984 L25.95 93.89 a0.933766 0.928984 -180 0 0 -0.933766
								 -0.928984 L0.93 92.97 a0.933766 0.928984 -180 0 0 -0.933766 0.928984 Z" class="st5"/>
				</g>
			</g>
		</g>
	</g>
</svg>
